google.svg

<svg viewBox="0 0 24 24" xmlns="http://www.w3.org/2000/svg"><path d="M23.745 12.27C23.745 11.48 23.675 10.73 23.555 10L12.255 10L12.255 14.51L18.725 14.51C18.435 15.99 17.585 17.24 16.325 18.09L16.325 21.09L20.185 21.09C22.445 19 23.745 15.92 23.745 12.27Z" fill="#4285f4"/><path d="M12.255 24C15.495 24 18.205 22.92 20.185 21.09L16.325 18.09C15.245 18.81 13.875 19.25 12.255 19.25C9.125 19.25 6.475 17.14 5.525 14.29L1.545 14.29L1.545 17.38C3.515 21.3 7.565 24 12.255 24Z" fill="#34a853"/><path d="M5.525 14.29C5.275 13.57 5.145 12.8 5.145 12C5.145 11.2 5.285 10.43 5.525 9.71L5.525 6.62L1.545 6.62C0.725 8.24 0.255 10.06 0.255 12C0.255 13.94 0.725 15.76 1.545 17.38L5.525 14.29Z" fill="#fbbc05"/><path d="M12.255 4.75C14.025 4.75 15.605 5.36 16.855 6.55L20.275 3.13C18.205 1.19 15.495 0 12.255 0C7.565 0 3.515 2.7 1.545 6.62L5.525 9.71C6.475 6.86 9.125 4.75 12.255 4.75Z" fill="#ea4335"/></svg>

<svg viewBox="0 0 24 24" xmlns="http://www.w3.org/2000/svg"><path d="M23.745 12.27c0-.79-.07-1.54-.19-2.27h-11.3v4.51h6.47c-.29 1.48-1.14 2.73-2.4 3.58v3h3.86c2.26-2.09 3.56-5.17 3.56-8.82Z" fill="#4285f4"/><path d="M12.255 24c3.24 0 5.95-1.08 7.93-2.91l-3.86-3c-1.08.72-2.45 1.16-4.07 1.16-3.13 0-5.78-2.11-6.73-4.96h-3.98v3.09C3.515 21.3 7.565 24 12.255 24Z" fill="#34a853"/><path d="M5.525 14.29c-.25-.72-.38-1.49-.38-2.29s.14-1.57.38-2.29V6.62h-3.98a11.86 11.86 0 0 0 0 10.76l3.98-3.09Z" fill="#fbbc05"/><path d="M12.255 4.75c1.77 0 3.35.61 4.6 1.8l3.42-3.42C18.205 1.19 15.495 0 12.255 0c-4.69 0-8.74 2.7-10.71 6.62l3.98 3.09c.95-2.85 3.6-4.96 6.73-4.96Z" fill="#ea4335"/></svg>
